X:73
T:Old Ceaw es #172
Z:id:hn-polka-70
M:2/4
L:1/8
K:A
Bd/^c/d ed|fB eA|d2 d2|e/f/e/f/ g>d|ce e


*****************************


15200 3 0.680961 

<stared)
Z:id:hn-polka-58
M:2/4
L:1/8
K:Dm
Ad cB|AD F2|AF EF|FE EF/E/|A>E FD|ED DE|FA AF/G/|D2 AG|BG B/G/


*****************************


15300 3 0.919154 

<start>
